img/icons/mime/large/bmp.svg

<svg height="140.9" width="125.3" xmlns="http://www.w3.org/2000/svg" xmlns:xlink="http://www.w3.org/1999/xlink"><linearGradient id="a" gradientTransform="matrix(.939922 0 0 .896911 -12.081733 -3.352424)" gradientUnits="userSpaceOnUse" x1="24" x2="73" y1="16.4" y2="73.4"><stop offset="0" stop-color="#fff"/><stop offset="1" stop-color="#fff" stop-opacity="0"/></linearGradient><linearGradient id="b" gradientTransform="matrix(1.257993 0 0 .738788 -13.118031 -7.742593)" gradientUnits="userSpaceOnUse" x1="12.2" x2="107.8" y1="84" y2="84"><stop offset="0" stop-color="#46a046"/><stop offset=".4" stop-color="#df421e"/><stop offset=".7" stop-color="#ada7c8"/><stop offset="1" stop-color="#eed680"/></linearGradient><g stroke="#000"><rect fill="none" height="133.4" rx="22.9" stroke-linejoin="round" stroke-opacity=".5" stroke-width="7.5" width="117.8" x="3.8" y="3.8"/><rect fill="#df421e" height="133.4" rx="22.9" stroke-width="3.8" width="117.8" x="3.6" y="3.7"/><rect fill="url(#b)" height="67.2" rx="1.3" stroke-width="3.3" width="117" x="3.9" y="20.8"/></g><path d="m100.3 132.6h-75.7c-11.6 0-17.3-5.7-17.3-17.4 0 0 27.6-66.5 110.4-76.6v76.6c0 11.7-5.7 17.4-17.4 17.4z" fill="#fff" fill-opacity=".3"/><path d="m24.6 7.3h75.7c11.7 0 17.4 5.7 17.4 17.4 0 0-79.3.9-110.4 91.3v-91.3c0-10.3 7-17.4 17.3-17.4z" fill="url(#a)"/><path d="m92.2 115.4v11.2h-6.8v-31.2h18.7c2.9 0 5.2.9 6.9 2.6 1.6 1.7 2.5 4.2 2.5 7.4 0 3.3-.9 5.8-2.5 7.5-1.7 1.7-4 2.5-6.9 2.5zm0-14.6v9.3h8.9c1.5 0 2.7-.4 3.6-1.1.9-.8 1.4-2 1.4-3.6 0-1.5-.5-2.7-1.4-3.4-.9-.8-2.1-1.2-3.6-1.2zm-41.2 25.8h-6.7v-31.2h10l8.1 24.1 8.3-24.1h10v31.2h-6.7v-23.3h-.2l-8 23.3h-6.6l-8-23.3h-.2zm-38.9 0v-31.2h19.3c2.5 0 4.7.7 6.4 2 2 1.4 3 3.4 3 5.8 0 1.7-.4 3.3-1.3 4.7-.4.7-.9 1.2-1.4 1.7-.6.5-1.3.9-2.3 1.4 1.6.6 2.9 1.5 3.9 2.8.9 1.3 1.4 2.9 1.4 4.6 0 2.9-1 5.1-3 6.4-1.6 1.2-3.9 1.8-6.7 1.8zm17.2-18.2c1.5 0 2.6-.3 3.3-1 .8-.7 1.2-1.7 1.2-2.9 0-2.6-1.5-3.9-4.5-3.9h-10.5v7.8zm0 13c1.5 0 2.6-.3 3.3-1 .8-.7 1.2-1.7 1.2-2.9 0-2.6-1.5-3.9-4.5-3.9h-10.5v7.8z"/><path d="m91.5 114.8v11.1h-6.7v-31.1h18.6c2.9 0 5.2.8 6.9 2.5s2.5 4.2 2.5 7.5c0 3.2-.8 5.7-2.5 7.4s-4 2.6-6.9 2.6zm0-14.7v9.3h8.9c1.5 0 2.7-.3 3.6-1.1.9-.7 1.4-1.9 1.4-3.5s-.5-2.8-1.4-3.5c-.9-.8-2.1-1.2-3.6-1.2zm-41.2 25.8h-6.7v-31.1h10l8.2 24 8.2-24h10v31.1h-6.7v-23.3h-.1l-8.1 23.3h-6.5l-8.1-23.3h-.2zm-38.9 0v-31.1h19.3c2.5 0 4.7.6 6.4 1.9 2 1.5 3 3.4 3 5.8 0 1.7-.4 3.3-1.3 4.7-.4.7-.8 1.2-1.4 1.7s-1.3.9-2.2 1.4c1.6.6 2.8 1.6 3.8 2.9s1.4 2.8 1.4 4.5c0 2.9-1 5.1-3 6.5-1.6 1.1-3.8 1.7-6.7 1.7zm17.2-18.1c1.5 0 2.6-.4 3.4-1.1.7-.7 1.1-1.6 1.1-2.9 0-2.6-1.5-3.9-4.5-3.9h-10.5v7.9zm0 13c1.5 0 2.6-.4 3.4-1.1.7-.7 1.1-1.6 1.1-2.9 0-2.6-1.5-3.9-4.5-3.9h-10.5v7.9z" fill="#fff"/></svg>

<svg xmlns:svg="http://www.w3.org/2000/svg" xmlns="http://www.w3.org/2000/svg" xmlns:xlink="http://www.w3.org/1999/xlink" height="140.9" width="125.3" id="svg1" version="1">
<style>
.s0{
  stop-color:#46a046;
  stop-opacity:1;
}
.s1{
  stop-color:#df421e;
  stop-opacity:1;
}
.s2{
  stop-color:#ada7c8;
  stop-opacity:1;
}
.s3{
  stop-color:#eed680;
  stop-opacity:1;
}

</style>  <metadata id="metadata15"/>
  <defs id="defs3">
    <linearGradient id="linearGradient3587">
      <stop offset="0" id="stop3589" style="stop-color:#efe0cd;stop-opacity:0.6"/>
      <stop offset="1" id="stop3591" style="stop-color:#cececd;stop-opacity:0.2"/>
    </linearGradient>
    <linearGradient id="linearGradient2832">
      <stop id="stop2834" offset="0" style="stop-color:#ffffff;stop-opacity:1"/>
      <stop id="stop2836" offset="1" style="stop-color:#ffffff;stop-opacity:0"/>
    </linearGradient>
    <linearGradient id="linearGradient839">
      <stop id="stop840" offset="0" class="s0"/>
      <stop id="stop841" offset="0.4" class="s1"/>
      <stop id="stop842" offset="0.7" class="s2"/>
      <stop id="stop843" offset="1" class="s3"/>
    </linearGradient>
    <linearGradient y2="84" x2="107.8" y1="84" x1="12.2" id="linearGradient836" xlink:href="#linearGradient839" gradientTransform="scale(1.353569,0.738788)" gradientUnits="userSpaceOnUse"/>
    <linearGradient gradientUnits="userSpaceOnUse" y2="73.4" x2="73" y1="16.4" x1="24" gradientTransform="matrix(0.939922,0,0,0.896911,-12.081733,-3.3524237)" id="linearGradient2830" xlink:href="#linearGradient2832"/>
    <linearGradient xlink:href="#linearGradient1700" id="linearGradient1407" gradientUnits="userSpaceOnUse" gradientTransform="matrix(0.777129,0,0,0.894628,-162.4688,12.76856)" x1="111.3" y1="124.3" x2="107.3" y2="93.7"/>
    <linearGradient xlink:href="#linearGradient1700" id="linearGradient1390" gradientUnits="userSpaceOnUse" gradientTransform="matrix(0.777129,0,0,0.894628,-2.922179,10.43077)" x1="111.3" y1="124.3" x2="107.3" y2="93.7"/>
    <linearGradient id="linearGradient1350">
      <stop id="stop1352" offset="0" class="s0"/>
      <stop id="stop1354" offset="0.4" class="s1"/>
      <stop id="stop1356" offset="0.7" class="s2"/>
      <stop id="stop1358" offset="1" class="s3"/>
    </linearGradient>
    <linearGradient y2="0.5" x2="1" y1="0.5" x1="0" id="linearGradient1360" xlink:href="#linearGradient839"/>
    <linearGradient gradientUnits="userSpaceOnUse" y2="88" x2="128.7" y1="121.7" x1="123.5" gradientTransform="matrix(0.870364,0,0,1.001961,4.612015,4.886798)" id="linearGradient1362" xlink:href="#linearGradient1700"/>
    <linearGradient y2="0.5" x2="1" y1="0.5" x1="0" id="linearGradient1363" xlink:href="#linearGradient839"/>
    <linearGradient id="linearGradient1353">
      <stop id="stop1355" offset="0" class="s0"/>
      <stop id="stop1357" offset="0.4" class="s1"/>
      <stop id="stop1359" offset="0.7" class="s2"/>
      <stop id="stop1361" offset="1" class="s3"/>
    </linearGradient>
    <linearGradient id="linearGradient1700">
      <stop id="stop1701" offset="0" style="stop-color:#000000;stop-opacity:0.7"/>
      <stop id="stop1702" offset="1" style="stop-color:#000000;stop-opacity:0"/>
    </linearGradient>
    <linearGradient xlink:href="#linearGradient839" id="linearGradient1427" x1="0" y1="0.5" x2="1" y2="0.5"/>
    <linearGradient id="linearGradient1417">
      <stop offset="0" id="stop1419" class="s0"/>
      <stop offset="0.4" id="stop1421" class="s1"/>
      <stop offset="0.7" id="stop1423" class="s2"/>
      <stop offset="1" id="stop1425" class="s3"/>
    </linearGradient>
    <linearGradient y2="0.5" x2="1" y1="0.5" x1="0" id="linearGradient1381" xlink:href="#linearGradient839"/>
    <linearGradient id="linearGradient1371">
      <stop id="stop1373" offset="0" class="s0"/>
      <stop id="stop1375" offset="0.4" class="s1"/>
      <stop id="stop1377" offset="0.7" class="s2"/>
      <stop id="stop1379" offset="1" class="s3"/>
    </linearGradient>
    <linearGradient xlink:href="#linearGradient839" id="linearGradient1374" x1="0" y1="0.5" x2="1" y2="0.5"/>
    <linearGradient id="linearGradient1364">
      <stop offset="0" id="stop1366" class="s0"/>
      <stop offset="0.4" id="stop1368" class="s1"/>
      <stop offset="0.7" id="stop1370" class="s2"/>
      <stop offset="1" id="stop1372" class="s3"/>
    </linearGradient>
    <linearGradient xlink:href="#linearGradient839" id="linearGradient1389" x1="0" y1="0.5" x2="1" y2="0.5"/>
    <linearGradient id="linearGradient833">
      <stop offset="0" id="stop834" style="stop-color:#00ff00;stop-opacity:1"/>
      <stop offset="0.3" id="stop837" style="stop-color:#ff0000;stop-opacity:1"/>
      <stop offset="0.8" id="stop838" style="stop-color:#7f8cff;stop-opacity:1"/>
      <stop offset="1" id="stop835" style="stop-color:#ffff00;stop-opacity:1"/>
    </linearGradient>
    <linearGradient id="linearGradient1373">
      <stop offset="0" id="stop1376" class="s0"/>
      <stop offset="0.4" id="stop1378" class="s1"/>
      <stop offset="0.7" id="stop1380" class="s2"/>
      <stop offset="1" id="stop1382" class="s3"/>
    </linearGradient>
    <linearGradient xlink:href="#linearGradient839" id="linearGradient1401" gradientUnits="userSpaceOnUse" gradientTransform="matrix(1.257993,0,0,0.738788,-13.118031,-7.7425927)" x1="12.2" y1="84" x2="107.8" y2="84"/>
  </defs>
  <rect rx="22.9" ry="22.9" y="3.8" x="3.8" height="133.4" width="117.8" id="rect834" style="fill:none;stroke-linejoin:round;stroke-opacity:0.5;stroke-width:7.5;stroke:#000"/>
  <rect rx="22.9" ry="22.9" y="3.7" x="3.6" height="133.4" width="117.8" id="rect828" style="fill:#df421e;stroke-width:3.8;stroke:#000"/>
  <rect id="rect832" width="117" height="67.2" ry="1.3" x="3.9" y="20.8" rx="1.3" style="fill:url(#linearGradient1401);stroke-width:3.3;stroke:#000"/>
  <path id="path2838" d="M100.3 132.6L24.6 132.6C13 132.6 7.3 126.9 7.3 115.2 7.3 115.2 34.9 48.7 117.7 38.6L117.7 115.2C117.7 126.9 112 132.6 100.3 132.6z" style="fill-opacity:0.3;fill:#fff"/>
  <path id="rect2063" d="M24.6 7.3L100.3 7.3C112 7.3 117.7 13 117.7 24.7 117.7 24.7 38.4 25.6 7.3 116L7.3 24.7C7.3 14.4 14.3 7.3 24.6 7.3z" fill="url(#linearGradient2830)"/>
  <path d="M92.2 115.4L92.2 126.6 85.4 126.6 85.4 95.4 104.1 95.4C107 95.4 109.3 96.3 111 98 112.6 99.7 113.5 102.2 113.5 105.4 113.5 108.7 112.6 111.2 111 112.9 109.3 114.6 107 115.4 104.1 115.4L92.2 115.4zM92.2 100.8L92.2 110.1 101.1 110.1C102.6 110.1 103.8 109.7 104.7 109 105.6 108.2 106.1 107 106.1 105.4 106.1 103.9 105.6 102.7 104.7 102 103.8 101.2 102.6 100.8 101.1 100.8L92.2 100.8zM51 126.6L44.3 126.6 44.3 95.4 54.3 95.4 62.4 119.5 70.7 95.4 80.7 95.4 80.7 126.6 74 126.6 74 103.3 73.8 103.3 65.8 126.6 59.2 126.6 51.2 103.3 51 103.3 51 126.6zM12.1 126.6L12.1 95.4 31.4 95.4C33.9 95.4 36.1 96.1 37.8 97.4 39.8 98.8 40.8 100.8 40.8 103.2 40.8 104.9 40.4 106.5 39.5 107.9 39.1 108.6 38.6 109.1 38.1 109.6 37.5 110.1 36.8 110.5 35.8 111 37.4 111.6 38.7 112.5 39.7 113.8 40.6 115.1 41.1 116.7 41.1 118.4 41.1 121.3 40.1 123.5 38.1 124.8 36.5 126 34.2 126.6 31.4 126.6L12.1 126.6zM29.3 108.4C30.8 108.4 31.9 108.1 32.6 107.4 33.4 106.7 33.8 105.7 33.8 104.5 33.8 101.9 32.3 100.6 29.3 100.6L18.8 100.6 18.8 108.4 29.3 108.4zM29.3 121.4C30.8 121.4 31.9 121.1 32.6 120.4 33.4 119.7 33.8 118.7 33.8 117.5 33.8 114.9 32.3 113.6 29.3 113.6L18.8 113.6 18.8 121.4 29.3 121.4z" id="path841" style="font-family:Trek;font-size:40;stroke-width:1"/>
  <path d="M91.5 114.8L91.5 125.9 84.8 125.9 84.8 94.8 103.4 94.8C106.3 94.8 108.6 95.6 110.3 97.3 112 99 112.8 101.5 112.8 104.8 112.8 108 112 110.5 110.3 112.2 108.6 113.9 106.3 114.8 103.4 114.8L91.5 114.8zM91.5 100.1L91.5 109.4 100.4 109.4C101.9 109.4 103.1 109.1 104 108.3 104.9 107.6 105.4 106.4 105.4 104.8 105.4 103.2 104.9 102 104 101.3 103.1 100.5 101.9 100.1 100.4 100.1L91.5 100.1zM50.3 125.9L43.6 125.9 43.6 94.8 53.6 94.8 61.8 118.8 70 94.8 80 94.8 80 125.9 73.3 125.9 73.3 102.6 73.2 102.6 65.1 125.9 58.6 125.9 50.5 102.6 50.3 102.6 50.3 125.9zM11.4 125.9L11.4 94.8 30.7 94.8C33.2 94.8 35.4 95.4 37.1 96.7 39.1 98.2 40.1 100.1 40.1 102.5 40.1 104.2 39.7 105.8 38.8 107.2 38.4 107.9 38 108.4 37.4 108.9 36.8 109.4 36.1 109.8 35.2 110.3 36.8 110.9 38 111.9 39 113.2 40 114.5 40.4 116 40.4 117.7 40.4 120.6 39.4 122.8 37.4 124.2 35.8 125.3 33.6 125.9 30.7 125.9L11.4 125.9zM28.6 107.8C30.1 107.8 31.2 107.4 32 106.7 32.7 106 33.1 105.1 33.1 103.8 33.1 101.2 31.6 99.9 28.6 99.9L18.1 99.9 18.1 107.8 28.6 107.8zM28.6 120.8C30.1 120.8 31.2 120.4 32 119.7 32.7 119 33.1 118.1 33.1 116.8 33.1 114.2 31.6 112.9 28.6 112.9L18.1 112.9 18.1 120.8 28.6 120.8z" id="path2166" style="fill:#fff;font-family:Trek;font-size:40;stroke-width:1"/>
</svg>
